X: 13277
T: Five Pound Flute, The
R: jig
M: 6/8
K: Dmixolydian
DAD FDA|~D3 CEG|DAD FAB|cBc GEC|
DAD FDA|~D3 CEG|cBc dcA|1 GEC CEG:|2 GEC EGc||
|:d3 ~f3|gfg afd|AaA gAf|~e3 e^cA|
~B3 def|efe fdB|~c3 ecA|1 GEC EGc:|2 GEC CEG||

